X: 15
T: No_23_Comanche_Dance_Song.krn
N: Derived from No_23_Comanche_Dance_Song.krn
%%abc-version 2.0
%%abcx-abcm2ps-target-version 5.9.1 (29 Sep 2008)
%%abc-creator hum2abc beta
%%abcx-conversion-date 2019/03/15 08:27:55
%%humdrum-veritas 2757467254
%%humdrum-veritas-data 1413799653
%%linebreak <none>
%%barnumbers 0
L: 1/16
M: 2/4
K: D clef=bass
[K:clef=bass][M:2/4]z4A,3E | 
E4E4 | 
[M:3/4](E3/A,/)A, z E2E2 A,3A, | 
[M:2/4]A,4A,3A, | 
[M:3/4](A,E,)E,2z4E,3E | 
[M:2/4]E4E4 | 
[M:3/4]E3/A,/A, z E2E2 A,3A, | 
A,4A,3A, A,2 z2 | 
[M:2/4]A,3A, A,3E | 
E8 | 
[M:3/4](E3/A,/)A, z E2E2 A,E,/ z/ B,2 | 
A,4A,3A, F,E,E, z ]|:  
[M:2/4]G,2G,2 E,2D,2 | 
[M:3/4]D,3D,D,4z3 D | 
A,2A,2 A,3A, F,F,E, z | 
[M:2/4]G,2G,2 E,2D,2 | 
[M:3/4]D,4(D,4A,,2) z E, | 
[M:2/4]E,4E,3E, | 
[M:3/4]E,A,,A,, z E,2E,2 A,,3A,, | 
[M:2/4]A,,7A,, | 
A,,4A,,4 | 
z4G,E,E,2 :|]  
A,,4A,,2 z2 |]  



